icons/24x24_books_filled.svg

<svg xmlns="http://www.w3.org/2000/svg" width="24" height="24" viewBox="0 0 24 24">
  <path fill-rule="evenodd" d="M20.4737206,18 L21,18 C21.5522847,18 22,18.4477153 22,19 C22,19.5522847 21.5522847,20 21,20 L3,20 C2.44771525,20 2,19.5522847 2,19 C2,18.4477153 2.44771525,18 3,18 L3,9 C3,8.44771525 3.44771525,8 4,8 L6,8 C6.55228475,8 7,8.44771525 7,9 L7,18 L8,18 L8,5 C8,4.44771525 8.44771525,4 9,4 L12,4 C12.5522847,4 13,4.44771525 13,5 L13,18 L17.8660254,18 L14,11.3038476 L14,6.72649731 L14.6160254,6.37083488 C15.094318,6.0946925 15.7059084,6.25856766 15.9820508,6.73686028 L21.4820508,16.2631397 C21.7581932,16.7414323 21.594318,17.3530227 21.1160254,17.6291651 L20.4737206,18 Z"/>
</svg>

<svg width="24" height="24" fill="none" xmlns="http://www.w3.org/2000/svg"><path fill-rule="evenodd" clip-rule="evenodd" d="M20.474 18H21a1 1 0 1 1 0 2H3a1 1 0 1 1 0-2V9a1 1 0 0 1 1-1h2a1 1 0 0 1 1 1v9h1V5a1 1 0 0 1 1-1h3a1 1 0 0 1 1 1v13h4.866L14 11.304V6.726l.616-.355a1 1 0 0 1 1.366.366l5.5 9.526a1 1 0 0 1-.366 1.366l-.642.371Z" fill="#000"/></svg>
